X:9
T:The Cabin Hunter
R:reel
D:Snug in the Blanket,P.O'Brien,J.Gans,D.Sproule
S:John Kelly, West Clare
Z:Paul Stewart Cranford (P.S.C.), <http://www.cranfordpub.com>
L:1/8
Q:333
M:C|
K:EAeo
GEED E2 AF|GE ~E2 dAFA|GEED EGFE|DFAF DFAB|
GEED E2 AF|GE ~E2 dAFA|GEED EGFE|DFAF DFAd||
||Beed e2 ed|Bdef gfed|Bdde d2 dB|ABAG FDFA|
Beed e2 ed|Bdef g2 fe|dg ~g2 efge|d3 B AdBA|]
